!!!!SEGMENT: pl-kk--kk-i-513--017_haser-august-ferdinand--miserere-quoniam-si-voluisses.krn
!!!cenid: 17xx:1857
!!!COM: Häser, August Ferdinand
!!!COM-rismid: pe37240
!!!CDT: 1779/10/15-1844/11/01
!!!CNT: German
!!!OPR: Miserere
!!!OTL: Quoniam si voluisses
!!!OMV: 017
!!!PDT:
!!!AGN: Sacred
!!!SMS-siglum: PL-Kk
!!!SMS-shelfmark: Kk.I.513
!!!SMS-shelfwork: 001-017 M
!!!SMS-variant:
!!!SMS-altvar:
!!!NIFC-rismid: 1001138557
!!!system-decoration: [(s1,s2,s3,s4)][(s5,s6)]
!!!AIN: 1 alto 1 bass 2 empty 1 soprn 1 tenor
!!!key:
**kern	**kern	**kern	**text	**dynam	**kern	**text	**dynam	**kern	**text	**dynam	**kern	**text
*part6	*part5	*part4	*part4	*part4	*part3	*part3	*part3	*part2	*part2	*part2	*part1	*part1
*staff6	*staff5	*staff4	*staff4	*	*staff3	*staff3	*	*staff2	*staff2	*	*staff1	*staff1
*Iempty	*Iempty	*Ibass	*	*	*Itenor	*	*	*Ialto	*	*	*Isoprn	*
*	*I"P5	*I"Basso.	*	*	*I"Tenore.	*	*	*I"Alto	*	*	*I"Soprano.	*
*	*	*I'B	*	*	*I'T	*	*	*I'A	*	*	*I'S	*
*clefF4	*clefG2	*clefF4	*	*	*clefC4	*	*	*clefG2	*	*	*clefG2	*
*k[f#c#g#]	*k[f#c#g#]	*k[f#c#g#]	*	*	*k[f#c#g#]	*	*	*k[f#c#g#]	*	*	*k[f#c#g#]	*
*f#:	*f#:	*f#:	*	*	*f#:	*	*	*f#:	*	*	*f#:	*
*M3/4	*M3/4	*M3/4	*	*	*M3/4	*	*	*M3/4	*	*	*M3/4	*
=1	=1	=1	=1	=1	=1	=1	=1	=1	=1	=1	=1	=1
*2\right	*2\right	*2\right	*	*	*	*	*	*	*	*	*2\right	*
!LO:TX:t=P:problem=all\right&colon; global	!LO:TX:t=P:problem=all\right&colon; global	!LO:TX:t=P:problem=all\right&colon; global	!	!	!LO:TX:t=P:problem=all\right&colon; global	!	!	!	!	!	!LO:TX:t=P:problem=all\right&colon; global	!
!	!LO:TX:t=P:problem=w źródle brak oznaczenia tempa	!	!	!	!	!	!	!	!	!	!	!
!	!	!LO:TX:a:Bi:t=3	!	!	!	!	!	!	!	!	!	!
!	!	!	!	!	!	!	!	!LO:TX:a:Bi:t=N 17.:problem='N 17.' znajduje się przed kluczem i oznaczeniem metrum na pięciolinii	!	!	!LO:TX:a:Bi:t=No 17.:problem='No 17.' znajduje się przed kluczem i oznaczeniem metrum na pięciolinii	!
!	!LO:TX:a:Bi:t=N 17.:problem='N 17.' znajduje się przed kluczem i oznaczeniem metrum na pięciolinii	!LO:TX:a:Bi:t=N 17.:problem='N 17.' znajduje się przed kluczem i oznaczeniem metrum na pięciolinii	!	!	!LO:TX:a:Bi:t=N 17.:problem='N 17.' znajduje się przed kluczem i oznaczeniem metrum na pięciolinii	!	!	!	!	!	!	!
!	!LO:TX:a:t=A:problem=dopisane ołówkiem	!LO:TX:b:Bi:t=Larghetto.:rj	!	!	!LO:TX:a:Bi:t=Larghetto:rj	!	!	!LO:TX:a:Bi:t=Largetto:rj	!	!	!LO:TX:a:Bi:t=Larghetto.:rj	!
!	!	!LO:n:vis=0	!	!	!	!	!LO:DY:b:t=%s.	!	!	!	!	!
4r	4r	1.r	.	.	4r	.	mf	4r	.	.	4r	.
!	!	!	!	!	!LO:TX:a:Bi:t=Solo	!	!	!LO:TX:a:Bi:t=Solo	!	!	!LO:TX:a:Bi:t=Soli &colon;	!
4.A\	2cc# 2e\	.	.	.	4.A\	Quo-	.	4.e/	Quo-	.	4.cc#\	Quo-
8A#X\	.	.	.	.	8A#X\	-ni-	.	8e/	-ni-	.	8cc#\	-ni-
=2	=2	=2	=2	=2	=2	=2	=2	=2	=2	=2	=2	=2
4B\	4dd 4e/	.	.	.	4B\	-am	.	4e/	-am	.	4dd\	-am
8r	8r	.	.	.	8r	.	.	8r	.	.	8r	.
8e 8B\	16ee/LL	.	.	.	8B\	si	.	8g#/	si	.	16ee\LL	si
.	16dd/JJ	.	.	.	.	.	.	.	.	.	16dd\JJ	.
4e 4d\	16cc#/LL	.	.	.	8d\	vo-	.	8e/	vo-	.	16cc#\LL	vo-
.	16b/JJ	.	.	.	.	.	.	.	.	.	16b\JJ	.
.	16a/LL	.	.	.	8d\	-lu-	.	8e/	-lu-	.	16a/LL	-lu-
.	16g#/JJ	.	.	.	.	.	.	.	.	.	16g#/JJ	.
=3	=3	=3	=3	=3	=3	=3	=3	=3	=3	=3	=3	=3
*	*^	*	*	*	*	*	*	*	*	*	*	*
4.c#\	4.a/	2e\	2.r	.	.	4.c#\	-iſ-	.	4.e/	-iſ-	.	4.a/	-is-
8G#\L	8b/L	.	.	.	.	8G#/	-ses	.	8e/	-ses	.	8b/	-ses
8A\	8cc#/	8e\L	.	.	.	8A\	sa-	.	8e/	sa-	.	8cc#\	sa-
.	8qee/	.	.	.	.	.	.	.	.	.	.	8qee/	.
8d\J	8dd/J	8f#\J	.	.	.	8d\	-cri-	.	8f#/	-cri-	.	8dd\	-cri-
*	*v	*v	*	*	*	*	*	*	*	*	*	*	*
=4	=4	=4	=4	=4	=4	=4	=4	=4	=4	=4	=4	=4
!	!	!LO:TX:a:Bi:t=tutti	!	!	!	!	!	!	!	!	!	!
2e\	4cc# 4a\	4r	.	.	8.e\	-fi-	.	8.a/	-fi-	.	8.cc#\	-fi-
.	.	.	.	.	16e\	-ci-	.	16a/	-ci-	.	16cc#\	-ci-
.	4b 4g#\	4r	.	.	4e\	-um	.	4g#/	-um	.	4b\	-um
16r	16r	16r	.	.	16r	.	.	16r	.	.	16r	.
!	!	!	!	!	!LO:TX:a:Bi:t=tutti	!	!	!LO:TX:a:Bi:t=tutti	!	!	!	!
16E\LL	16e/LL	16E\	de-	.	16E/	de-	.	16e/	de-	.	16e/	de-
!	!	!	!	!	!LO:SIC:l:s=-dis-:v	!	!	!	!	!	!	!
16G#\	16g#/	16G#\	-diſ-	.	16G#/	-di-	.	16g#/	-diſ-	.	16g#/	-diſ-
16B\JJ	16b/JJ	16B\	-sem	.	16B/	-ſem	.	16b/	-sem	.	16b/	-sem
!	!	!	!	!	!LO:LB:g=original	!	!	!	!	!	!LO:LB:g=original	!
=5	=5	=5	=5	=5	=5	=5	=5	=5	=5	=5	=5	=5
4B 4E\	4dd 4g#\	8.E\	u-	.	8.B\	u-	.	8.g#/	u-	.	8.ee\	u-
.	.	16E\	-ti-	.	16e\	-ti-	.	16g#/	-ti-	.	16dd\	-ti-
!	!	!	!	!	!LO:SIC::l:s=-que:v	!	!	!	!	!	!	!
4e 4A\	4cc# 4a\	4A\	-que	.	4e\	-quo	.	4a/	-que	.	4cc#\	-que
4r	4r	4r	.	.	4r	.	.	4r	.	.	4r	.
!LO:LB:g=original	!LO:LB:g=original	!	!	!	!	!	!	!LO:LB:g=original	!	!	!	!
=6	=6	=6	=6	=6	=6	=6	=6	=6	=6	=6	=6	=6
!	!	!LO:TX:a:Bi:t=3	!	!	!	!	!	!	!	!	!	!
!	!	!LO::vis=0	!	!	!	!	!	!	!	!	!	!
4r	4r	1.r	.	.	4r	.	.	4r	.	.	4r	.
!	!	!	!	!	!LO:TX:a:Bi:t=Solo:rj	!	!	!LO:TX:a:Bi:t=Solo	!	!	!LO:TX:a:Bi:t=Soli	!
2d\	2b 2f#\	.	.	.	4.d\	quo-	.	4.f#/	quo-	.	4.b\	quo-
.	.	.	.	.	8d\	-ni-	.	8f#/	-ni-	.	8b\	-ni-
=7	=7	=7	=7	=7	=7	=7	=7	=7	=7	=7	=7	=7
4e\	4a#X 4f#/	.	.	.	4e\	-am	.	4f#/	-am	.	4a#X/	-am
8r	8r	.	.	.	8r	.	.	8r	.	.	8r	.
8a#X> 8c#>\	16ff#/LL	.	.	.	8c#\	si	.	8a#X/	si	.	16ff#\LL	si
.	16ee/JJ	.	.	.	.	.	.	.	.	.	16ee\JJ	.
4f#> 4e>\	16dd/LL	.	.	.	8e\	vo-	.	8f#/	vo-	.	16dd\LL	vo-
.	16cc#/JJ	.	.	.	.	.	.	.	.	.	16cc#\JJ	.
.	16b/LL	.	.	.	8e\	-lu-	.	8f#/	-lu-	.	16b/LL	-lu-
.	16a#X/JJ	.	.	.	.	.	.	.	.	.	16a#/JJ	.
=8	=8	=8	=8	=8	=8	=8	=8	=8	=8	=8	=8	=8
*	*^	*	*	*	*	*	*	*	*	*	*	*
4.d\	4.b/	2f#\	2.r	.	.	4.d\	-iſ-	.	4.f#/	-is-	.	4.b\	-iſ-
8A#X\L	8cc#/L	.	.	.	.	8A#X\	-ses	.	8f#/	-ses	.	8cc#\	-ses
8B\	8dd/	8f#\L	.	.	.	8B\	sa-	.	8f#/	sa-	.	8dd\	sa-
.	8qff#/	.	.	.	.	.	.	.	.	.	.	8qff#/	.
8e\J	8ee/J	8gn\J	.	.	.	8e\	-cri-	.	8gn/	-cri-	.	8ee\	-cri-
*	*v	*v	*	*	*	*	*	*	*	*	*	*	*
=9	=9	=9	=9	=9	=9	=9	=9	=9	=9	=9	=9	=9
2f#>\	4dd 4b/	4r	.	.	8.f#\	-fi-	.	8.b/	-fi-	.	8.dd\	-fi-
.	.	.	.	.	16f#\	-ci-	.	16b/	-ci-	.	16dd\	-ci-
.	4cc# 4a#X/	4r	.	.	4f#\	-um	.	4a#X/	-um	.	4cc#\	-um
16r	16r	16r	.	.	16r	.	.	16r	.	.	16r	.
!	!	!	!	!	!LO:TX:a:Bi:t=Tu	!	!	!LO:TX:a:Bi:t=Tutti	!	!	!	!
16F#\LL	16f#/LL	16F#\	de-	.	16F#/	de-	.	16f#/	de-	.	16f#/	de-
!	!	!	!	!	!LO:SIC:l:s=-dis-:v	!	!	!	!	!	!	!
16A#X\	16a#X/	16A#X\	-diſ-	.	16A#X/	-di-	.	16a#/	-diſ-	.	16a#X/	-diſ-
16c#\JJ	16cc#/JJ	16c#\	-sem	.	16c#/	-ſem	.	16cc#/	-sem	.	16cc#\	-sem
!	!	!LO:LB:g=original	!	!	!LO:LB:g=original	!	!	!	!	!	!LO:LB:g=original	!
=10	=10	=10	=10	=10	=10	=10	=10	=10	=10	=10	=10	=10
4c# 4F#\	4ee 4a#X\	8.F#\	u-	.	8.c#\	u-	.	8.a#X/	u-	.	8.ee\	u-
.	.	16F#\	-ti-	.	16f#\	-ti-	.	16a#/	-ti-	.	16ee\	-ti-
2B 2BB\	2dd 2f#\	4B\	-que	.	4f#\	-que	.	4b/	-que	.	4dd\	-que
!	!	!	!	!LO:DY:b:rj	!	!	!LO:DY:b:rj	!	!	!	!	!
.	.	8BB/	ho-	pp	8B\	ho-	pp	8f#/	ho-	.	8dd\	ho-
.	.	8BB/	-lo-	.	8B\	-lo-	.	8f#/	-lo-	.	8dd\	-lo-
!LO:LB:g=original	!LO:LB:g=original	!	!	!	!	!	!	!LO:LB:g=original	!	!	!	!
=11	=11	=11	=11	=11	=11	=11	=11	=11	=11	=11	=11	=11
!	!	!	!	!	!	!	!LO:DY:a:rj	!	!	!	!	!
2.G# 2.C#\	2.cc# 2.e#X\	2.C#/	-cau-	.	2.G#/	-cau-	>]	2.e#X/	-cau-	.	2.cc#\	-cau-
=12	=12	=12	=12	=12	=12	=12	=12	=12	=12	=12	=12	=12
4A 4D\	4a 4f#/	4D/	-stis	.	4F#/	-stis	.	4f#/	-stis	.	4a/	-stis
!	!	!	!	!	!	!	!LO:DY:b:rj	!	!	!LO:DY:b	!	!
8r	8r	8r	.	.	8r	.	p	8r	.	p	8r	.
!	!	!	!	!LO:DY:b:rj	!	!	!	!	!	!	!	!
4.B 4.BB\	4.gn 4.d/	8BB/	non	p	8B\	non	.	8d/	non	.	8gn/	non
.	.	8BB/	de-	.	8B\	de-	.	8d/	de-	.	8g/	de-
!	!	!	!	!	!	!	!	!	!	!	!LO:SIC:l:s=-le-:v	!
.	.	8BB/	-le-	.	8B\	-le-	.	8d/	-le-	.	8g/	-lec-
=13	=13	=13	=13	=13	=13	=13	=13	=13	=13	=13	=13	=13
*^	*^	*	*	*	*	*	*	*	*	*	*	*
4A/	2.C#\	2f#/	2.c#\	2C#/	-cta-	.	4A/	-cta-	.	2c#/	-cta-	.	2f#/	-cta-
2G#/	.	.	.	.	.	.	4.G#/	-be-	.	.	.	.	.	.
.	.	4e#X/	.	4C#/	-be-	.	.	.	.	4c#/	-be-	.	4e#X/	-be-
.	.	.	.	.	.	.	8G#/	.	.	.	.	.	.	.
*v	*v	*	*	*	*	*	*	*	*	*	*	*	*	*
*	*v	*v	*	*	*	*	*	*	*	*	*	*	*
=14	=14	=14	=14	=14	=14	=14	=14	=14	=14	=14	=14	=14
!	!	!	!	!	!	!	!	!	!	!	!LO:TX:b:Bi:t=fis	!
!	!	!	!	!	!	!	!	!	!	!	!LO:TX:t=P:problem=w źródle [2a] przekreślone	!
2A 2F#\	2f# 2c#/	2F#\	-ris.	.	2A/	-ris	.	2c#/	-ris.	.	2f#/	-ris .
4r	4r	4r	.	.	4r	.	.	4r	.	.	4r	.
==	==	==	==	==	==	==	==	==	==	==	==	==
*-	*-	*-	*-	*-	*-	*-	*-	*-	*-	*-	*-	*-
!!title: @{OTL};
!!!RDF**kern: > = above
!!!RDF**kern: < = below
!!!EED: Wojciech Jakubiak-Danek
!!!EST: 2021-01-03
!!!URL-scan: http://repozytorium.nifc.pl/skany/pl-kk-nut--i-513
!!!ONB-nifc:
!!!ENC: Andrzej Borzym
!!!END: 2021-01-01
